X: 721
T: Huangyandong da shili
%%abc-version 2.0
%%abcx-abcm2ps-target-version 5.9.1 (29 Sep 2008)
%%abc-creator hum2abc beta
%%abcx-conversion-date 2013/10/02 07:52:30
%%abc-edited-by Helmut Schaffrath
%%humdrum-veritas 2829225393
%%humdrum-veritas-data 3881154010
%%continueall 1
%%barnumbers 0
L: 1/8
M: 2/4
K: F
A> c d3/ f/ [I:setbarnb 1]| 
d c B A | 
c> F G A | 
c> f d A | 
c F E D | 
F C C D | 
F C D F | 
C4 | 
G F E D | 
F CC2 | 
c> B A G | 
A> c c G | 
A> c c G | 
A F E D | 
F C D F | 
C4 |]  



